images/CELR.svg

<svg height="250" viewBox="0 0 250 250" width="250" xmlns="http://www.w3.org/2000/svg"><g fill-rule="evenodd"><path d="m250 125c0 69.035156-55.964844 125-125 125s-125-55.964844-125-125 55.964844-125 125-125 125 55.964844 125 125zm0 0" fill="#fff"/><path d="m189.246094 174.25c-19.574219 19.167969-36.464844 28.429688-64.269532 28.429688-46.304687 0-78.277343-32.34375-78.277343-77.886719 0-46.773438 36.253906-77.472657 78.714843-77.472657 24.785157.027344 48.328126 10.859376 64.480469 29.667969l-19.808593 18.957031c-13.390626-14.222656-28.011719-21.632812-45.320313-21.632812-27.78125 0-50.460937 21.425781-50.460937 50.480469 0 30.5 21.835937 50.894531 51.085937 50.894531 18.324219 0 30.6875-7.410156 44.695313-21.425781zm0 0"/></g></svg>

<?xml version="1.0" encoding="UTF-8"?>
<svg xmlns="http://www.w3.org/2000/svg" xmlns:xlink="http://www.w3.org/1999/xlink" width="250px" height="250px" viewBox="0 0 250 250" version="1.1">
<g id="surface1">
<path style=" stroke:none;fill-rule:evenodd;fill:rgb(100%,100%,100%);fill-opacity:1;" d="M 250 125 C 250 194.035156 194.035156 250 125 250 C 55.964844 250 0 194.035156 0 125 C 0 55.964844 55.964844 0 125 0 C 194.035156 0 250 55.964844 250 125 Z M 250 125 "/>
<path style=" stroke:none;fill-rule:evenodd;fill:rgb(0%,0%,0%);fill-opacity:1;" d="M 189.246094 174.25 C 169.671875 193.417969 152.78125 202.679688 124.976562 202.679688 C 78.671875 202.679688 46.699219 170.335938 46.699219 124.792969 C 46.699219 78.019531 82.953125 47.320312 125.414062 47.320312 C 150.199219 47.347656 173.742188 58.179688 189.894531 76.988281 L 170.085938 95.945312 C 156.695312 81.722656 142.074219 74.3125 124.765625 74.3125 C 96.984375 74.3125 74.304688 95.738281 74.304688 124.792969 C 74.304688 155.292969 96.140625 175.6875 125.390625 175.6875 C 143.714844 175.6875 156.078125 168.277344 170.085938 154.261719 Z M 189.246094 174.25 "/>
</g>
</svg>
